src/svg/logo.svg

<svg width="305" height="148" viewBox="0 0 305 148" xmlns="http://www.w3.org/2000/svg"><title>kipfit</title><path d="M59.656 95.448L32.872 70.824 56.92 54.552c3.888-2.88 4.896-8.352 2.016-12.24-2.736-4.032-8.208-4.896-12.24-2.16L18.328 59.736V11.064A8.727 8.727 0 0 0 9.544 2.28 8.727 8.727 0 0 0 .76 11.064v91.728a8.727 8.727 0 0 0 8.784 8.784 8.727 8.727 0 0 0 8.784-8.784V81.336l29.376 27.072c1.728 1.584 3.744 2.304 5.904 2.304 2.304 0 4.752-1.008 6.48-2.736 3.312-3.744 3.024-9.216-.432-12.528zm19.008-68.976c-5.04 0-9.072-4.032-9.072-8.784v-.72c0-5.04 4.032-8.928 9.072-8.928 4.752 0 8.784 3.888 8.784 8.928v.72c0 4.752-4.032 8.784-8.784 8.784zm0 84.528c-5.04 0-9.072-4.032-9.072-8.928V46.488c0-4.896 4.032-8.784 9.072-8.784 4.752 0 8.784 3.888 8.784 8.784v55.584c0 4.896-4.032 8.928-8.784 8.928zm60.192-72.288c20.016 0 36.432 16.272 36.432 36.432 0 20.16-16.416 36.432-36.432 36.432-7.488 0-14.4-2.304-20.304-6.048v33.696c0 4.896-3.888 8.784-8.64 8.784a8.727 8.727 0 0 1-8.784-8.784V47.64c0-4.752 3.888-8.64 8.784-8.64 3.888 0 7.2 2.592 8.352 6.048 5.76-4.032 12.96-6.336 20.592-6.336zm0 55.44c10.368 0 19.008-8.496 19.008-19.008 0-10.512-8.64-19.008-19.008-19.008-10.512 0-19.008 8.496-19.008 19.008 0 10.512 8.496 19.008 19.008 19.008zm92.16-88.272C226.12 2.136 220.216.12 213.88.12c-15.696 0-28.512 12.816-28.512 28.512v72a8.727 8.727 0 0 0 8.784 8.784c4.752 0 8.64-3.888 8.64-8.784V64.2h13.68c4.896 0 8.784-4.032 8.784-8.784a8.727 8.727 0 0 0-8.784-8.784h-13.68V32.808c0-.72 0-1.44-.144-2.16.144-.576.144-1.296.144-2.016 0-6.048 5.04-10.944 11.088-10.944 2.448 0 4.752.72 6.624 2.16 3.888 2.88 9.648 1.584 12.24-1.728 2.448-3.168 2.16-9.36-1.728-12.24zm13.824 14.832a8.727 8.727 0 0 0-8.784 8.784v.432a8.727 8.727 0 0 0 8.784 8.784c4.752 0 8.64-3.888 8.64-8.784v-.432c0-4.896-3.888-8.784-8.64-8.784zm0 26.064c-4.896 0-8.784 3.888-8.784 8.64v45.216a8.727 8.727 0 0 0 8.784 8.784c4.752 0 8.64-3.888 8.64-8.784V55.416c0-4.752-3.888-8.64-8.64-8.64zm50.688 46.512c-1.008 0-2.304.144-3.024-.576-1.008-.864-.72-2.592-1.008-3.744V54.696h4.752c4.752 0 8.64-3.888 8.64-8.64 0-4.752-3.888-8.64-8.64-8.64h-4.752V9.912c0-4.752-3.888-8.64-8.64-8.64-4.752 0-8.64 3.888-8.64 8.64v27.504h-6.192c-4.752 0-8.64 3.888-8.64 8.64 0 4.752 3.888 8.64 8.64 8.64h6.192v36.288c0 4.464 2.016 9.648 4.896 12.96 3.312 3.744 7.92 5.76 12.672 6.48 1.296.144 2.448.144 3.744.144 4.752 0 8.64-3.744 8.64-8.64 0-4.752-3.888-8.64-8.64-8.64z" fill="#FFF" fill-rule="evenodd"/></svg>

<?xml version="1.0" encoding="UTF-8"?>
<svg width="305px" height="148px" viewBox="0 0 305 148" version="1.1" xmlns="http://www.w3.org/2000/svg" xmlns:xlink="http://www.w3.org/1999/xlink">
  <!-- Generator: Sketch 45.2 (43514) - http://www.bohemiancoding.com/sketch -->
  <title>Logo</title>
  <desc>Created with Sketch.</desc>
  <defs></defs>
  <g id="Page-1" stroke="none" stroke-width="1" fill="none" fill-rule="evenodd">
    <g id="Logo" fill="#FFFFFF">
      <path d="M59.656,95.448 L32.872,70.824 L56.92,54.552 C60.808,51.672 61.816,46.2 58.936,42.312 C56.2,38.28 50.728,37.416 46.696,40.152 L18.328,59.736 L18.328,11.064 C18.328,6.168 14.44,2.28 9.544,2.28 C4.648,2.28 0.76,6.168 0.76,11.064 L0.76,102.792 C0.76,107.688 4.648,111.576 9.544,111.576 C14.44,111.576 18.328,107.688 18.328,102.792 L18.328,81.336 L47.704,108.408 C49.432,109.992 51.448,110.712 53.608,110.712 C55.912,110.712 58.36,109.704 60.088,107.976 C63.4,104.232 63.112,98.76 59.656,95.448 Z M78.664,26.472 C73.624,26.472 69.592,22.44 69.592,17.688 L69.592,16.968 C69.592,11.928 73.624,8.04 78.664,8.04 C83.416,8.04 87.448,11.928 87.448,16.968 L87.448,17.688 C87.448,22.44 83.416,26.472 78.664,26.472 Z M78.664,111 C73.624,111 69.592,106.968 69.592,102.072 L69.592,46.488 C69.592,41.592 73.624,37.704 78.664,37.704 C83.416,37.704 87.448,41.592 87.448,46.488 L87.448,102.072 C87.448,106.968 83.416,111 78.664,111 Z M138.856,38.712 C158.872,38.712 175.288,54.984 175.288,75.144 C175.288,95.304 158.872,111.576 138.856,111.576 C131.368,111.576 124.456,109.272 118.552,105.528 L118.552,139.224 C118.552,144.12 114.664,148.008 109.912,148.008 C105.016,148.008 101.128,144.12 101.128,139.224 L101.128,47.64 C101.128,42.888 105.016,39 109.912,39 C113.8,39 117.112,41.592 118.264,45.048 C124.024,41.016 131.224,38.712 138.856,38.712 Z M138.856,94.152 C149.224,94.152 157.864,85.656 157.864,75.144 C157.864,64.632 149.224,56.136 138.856,56.136 C128.344,56.136 119.848,64.632 119.848,75.144 C119.848,85.656 128.344,94.152 138.856,94.152 Z M231.016,5.88 C226.12,2.136 220.216,0.12 213.88,0.12 C198.184,0.12 185.368,12.936 185.368,28.632 L185.368,100.632 C185.368,105.528 189.256,109.416 194.152,109.416 C198.904,109.416 202.792,105.528 202.792,100.632 L202.792,64.2 L216.472,64.2 C221.368,64.2 225.256,60.168 225.256,55.416 C225.256,50.52 221.368,46.632 216.472,46.632 L202.792,46.632 L202.792,32.808 C202.792,32.088 202.792,31.368 202.648,30.648 C202.792,30.072 202.792,29.352 202.792,28.632 C202.792,22.584 207.832,17.688 213.88,17.688 C216.328,17.688 218.632,18.408 220.504,19.848 C224.392,22.728 230.152,21.432 232.744,18.12 C235.192,14.952 234.904,8.76 231.016,5.88 Z M244.84,20.712 C239.944,20.712 236.056,24.6 236.056,29.496 L236.056,29.928 C236.056,34.824 239.944,38.712 244.84,38.712 C249.592,38.712 253.48,34.824 253.48,29.928 L253.48,29.496 C253.48,24.6 249.592,20.712 244.84,20.712 Z M244.84,46.776 C239.944,46.776 236.056,50.664 236.056,55.416 L236.056,100.632 C236.056,105.528 239.944,109.416 244.84,109.416 C249.592,109.416 253.48,105.528 253.48,100.632 L253.48,55.416 C253.48,50.664 249.592,46.776 244.84,46.776 Z M295.528,93.288 C294.52,93.288 293.224,93.432 292.504,92.712 C291.496,91.848 291.784,90.12 291.496,88.968 L291.496,54.696 L296.248,54.696 C301,54.696 304.888,50.808 304.888,46.056 C304.888,41.304 301,37.416 296.248,37.416 L291.496,37.416 L291.496,9.912 C291.496,5.16 287.608,1.272 282.856,1.272 C278.104,1.272 274.216,5.16 274.216,9.912 L274.216,37.416 L268.024,37.416 C263.272,37.416 259.384,41.304 259.384,46.056 C259.384,50.808 263.272,54.696 268.024,54.696 L274.216,54.696 L274.216,90.984 C274.216,95.448 276.232,100.632 279.112,103.944 C282.424,107.688 287.032,109.704 291.784,110.424 C293.08,110.568 294.232,110.568 295.528,110.568 C300.28,110.568 304.168,106.824 304.168,101.928 C304.168,97.176 300.28,93.288 295.528,93.288 Z" id="kipfit"></path>
    </g>
  </g>
</svg>
